src/pos-icons/source-commit.svg

<svg height="24" viewBox="0 0 24 24" width="24" xmlns="http://www.w3.org/2000/svg"><path d="m17 12c0 2.42-1.72 4.44-4 4.9v4.1h-2v-4.1c-2.28-.46-4-2.48-4-4.9s1.72-4.44 4-4.9v-4.1h2v4.1c2.28.46 4 2.48 4 4.9m-5-3a3 3 0 0 0 -3 3 3 3 0 0 0 3 3 3 3 0 0 0 3-3 3 3 0 0 0 -3-3z"/></svg>

<?xml version="1.0" encoding="UTF-8"?><!DOCTYPE svg PUBLIC "-//W3C//DTD SVG 1.1//EN" "http://www.w3.org/Graphics/SVG/1.1/DTD/svg11.dtd"><svg xmlns="http://www.w3.org/2000/svg" xmlns:xlink="http://www.w3.org/1999/xlink" version="1.1" id="mdi-source-commit" width="24" height="24" viewBox="0 0 24 24"><path d="M17,12C17,14.42 15.28,16.44 13,16.9V21H11V16.9C8.72,16.44 7,14.42 7,12C7,9.58 8.72,7.56 11,7.1V3H13V7.1C15.28,7.56 17,9.58 17,12M12,9A3,3 0 0,0 9,12A3,3 0 0,0 12,15A3,3 0 0,0 15,12A3,3 0 0,0 12,9Z" /></svg>
